static/fa/svgs/solid/file-pen.svg

<svg xmlns="http://www.w3.org/2000/svg" viewBox="0 0 576 512"><!--! Font Awesome Free 6.1.1 by @fontawesome - https://fontawesome.com License - https://fontawesome.com/license/free (Icons: CC BY 4.0, Fonts: SIL OFL 1.1, Code: MIT License) Copyright 2022 Fonticons, Inc.--><path d="M0 64C0 28.65 28.65 0 64 0h160v128c0 17.7 14.3 32 32 32h128v139.6l-94.7 94.7c-8.2 8.2-14 18.5-16.8 29.8l-15.1 60.1c-2.3 9.4-1.7 19 1.4 27.8H64c-35.35 0-64-28.7-64-64V64zm256 64V0l128 128H256zm308.1 122.1c15.7 15.6 15.7 40.9 0 56.6l-29.4 29.4-70.9-71 29.4-29.4c15.6-15.6 40.9-15.6 56.6 0l14.3 14.4zm-252.2 166 129.2-128.3 71 70.9-129.2 129.2c-4.1 4.1-9.3 7-14.9 8.4l-60.1 15.1c-5.5 1.3-11.2-.3-15.2-4.2-4-4-5.6-9.8-4.2-16.1l15-59.3c1.4-5.6 4.3-10.7 8.4-15.7z"/></svg>

<svg xmlns="http://www.w3.org/2000/svg" viewBox="0 0 576 512"><!--! Font Awesome Free 6.1.1 by @fontawesome - https://fontawesome.com License - https://fontawesome.com/license/free (Icons: CC BY 4.0, Fonts: SIL OFL 1.1, Code: MIT License) Copyright 2022 Fonticons, Inc. --><path d="M0 64C0 28.65 28.65 0 64 0H224V128C224 145.7 238.3 160 256 160H384V299.6L289.3 394.3C281.1 402.5 275.3 412.8 272.5 424.1L257.4 484.2C255.1 493.6 255.7 503.2 258.8 512H64C28.65 512 0 483.3 0 448V64zM256 128V0L384 128H256zM564.1 250.1C579.8 265.7 579.8 291 564.1 306.7L534.7 336.1L463.8 265.1L493.2 235.7C508.8 220.1 534.1 220.1 549.8 235.7L564.1 250.1zM311.9 416.1L441.1 287.8L512.1 358.7L382.9 487.9C378.8 492 373.6 494.9 368 496.3L307.9 511.4C302.4 512.7 296.7 511.1 292.7 507.2C288.7 503.2 287.1 497.4 288.5 491.1L303.5 431.8C304.9 426.2 307.8 421.1 311.9 416.1V416.1z"/></svg>
